krita/pics/tools/SVG/16/dark_tool_elliptical_selection.svg

<?xml version="1.0" encoding="UTF-8" standalone="no"?>
<svg
   xmlns:dc="http://purl.org/dc/elements/1.1/"
   xmlns:cc="http://creativecommons.org/ns#"
   xmlns:rdf="http://www.w3.org/1999/02/22-rdf-syntax-ns#"
   xmlns:svg="http://www.w3.org/2000/svg"
   xmlns="http://www.w3.org/2000/svg"
   height="16"
   width="16"
   version="1.1"
   viewBox="0 0 16 16"
   data-name="Layer 2"
   id="Layer_2">
  <metadata
     id="metadata11">
    <rdf:RDF>
      <cc:Work
         rdf:about="">
        <dc:format>image/svg+xml</dc:format>
        <dc:type
           rdf:resource="http://purl.org/dc/dcmitype/StillImage" />
        <dc:title></dc:title>
        <dc:creator>
          <cc:Agent>
            <dc:title>Andrei Rudenko</dc:title>
          </cc:Agent>
        </dc:creator>
        <dc:date>2021</dc:date>
        <cc:license
           rdf:resource="http://creativecommons.org/licenses/by-sa/4.0/" />
      </cc:Work>
      <cc:License
         rdf:about="http://creativecommons.org/licenses/by-sa/4.0/">
        <cc:permits
           rdf:resource="http://creativecommons.org/ns#Reproduction" />
        <cc:permits
           rdf:resource="http://creativecommons.org/ns#Distribution" />
        <cc:requires
           rdf:resource="http://creativecommons.org/ns#Notice" />
        <cc:requires
           rdf:resource="http://creativecommons.org/ns#Attribution" />
        <cc:permits
           rdf:resource="http://creativecommons.org/ns#DerivativeWorks" />
        <cc:requires
           rdf:resource="http://creativecommons.org/ns#ShareAlike" />
      </cc:License>
    </rdf:RDF>
  </metadata>
  <defs
     id="defs4">
    <style
       id="style2">.cls-1{fill:#cacaca;}</style>
  </defs>
  <path
     style="fill:#373737;stroke-width:0.49999839;fill-opacity:1"
     id="path6"
     d="M 7.9999482,7.8e-5 A 7.9999741,7.9999741 0 0 0 6.0599545,0.240077 l 0.4999983,1.939994 a 5.9699807,5.9699807 0 0 1 2.9099906,0 L 9.9699418,0.240077 A 7.9999741,7.9999741 0 0 0 7.9999482,7.8e-5 Z M 3.8849615,1.140074 4.9149582,2.855068 A 5.859981,5.859981 0 0 0 2.8549648,4.915062 L 1.1399704,3.885065 A 8.0699739,8.0699739 0 0 1 3.8849615,1.140074 Z M 0.23997332,6.060058 2.179967,6.560056 a 5.9699807,5.9699807 0 0 0 0,2.909991 L 0.23997332,9.970045 a 7.9599742,7.9599742 0 0 1 0,-3.879987 z m 0.89999708,6.05498 1.7149944,-1.029996 a 5.859981,5.859981 0 0 0 2.0599934,2.059993 L 3.8849615,14.86003 A 8.0699739,8.0699739 0 0 1 1.1399704,12.115038 Z m 4.9199841,3.644989 0.4999983,-1.939994 a 5.9699807,5.9699807 0 0 0 2.9099906,0 l 0.4999984,1.939994 a 7.9599742,7.9599742 0 0 1 -3.8799874,0 z M 12.114935,14.86003 11.084938,13.145035 a 5.859981,5.859981 0 0 0 2.059994,-2.059993 l 1.714994,1.029996 A 8.0699739,8.0699739 0 0 1 12.114935,14.86003 Z M 15.759923,9.940046 13.819929,9.440047 a 5.9699807,5.9699807 0 0 0 0,-2.90999 l 1.939994,-0.499999 a 7.9599742,7.9599742 0 0 1 0,3.879988 z M 14.859926,3.885065 13.144932,4.915062 A 5.859981,5.859981 0 0 0 11.084938,2.855068 l 1.029997,-1.714994 a 8.0699739,8.0699739 0 0 1 2.744991,2.744991 z"
     class="cls-1" />
</svg>

<svg xmlns:dc="http://purl.org/dc/elements/1.1/" xmlns:cc="http://creativecommons.org/ns#" xmlns:rdf="http://www.w3.org/1999/02/22-rdf-syntax-ns#" xmlns="http://www.w3.org/2000/svg" height="16" width="16" version="1.1" viewBox="0 0 16 16" data-name="Layer 2" id="Layer_2"><metadata id="metadata11"><rdf:RDF><cc:Work><dc:format>image/svg+xml</dc:format><dc:type rdf:resource="http://purl.org/dc/dcmitype/StillImage"/><dc:title/><dc:creator><cc:Agent><dc:title>Andrei Rudenko</dc:title></cc:Agent></dc:creator><dc:date>2021</dc:date><cc:license rdf:resource="http://creativecommons.org/licenses/by-sa/4.0/"/></cc:Work><cc:License rdf:about="http://creativecommons.org/licenses/by-sa/4.0/"><cc:permits rdf:resource="http://creativecommons.org/ns#Reproduction"/><cc:permits rdf:resource="http://creativecommons.org/ns#Distribution"/><cc:requires rdf:resource="http://creativecommons.org/ns#Notice"/><cc:requires rdf:resource="http://creativecommons.org/ns#Attribution"/><cc:permits rdf:resource="http://creativecommons.org/ns#DerivativeWorks"/><cc:requires rdf:resource="http://creativecommons.org/ns#ShareAlike"/></cc:License></rdf:RDF></metadata><path style="fill:#373737;stroke-width:.49999839;fill-opacity:1" id="path6" d="M8 0a8 8 0 0 0-1.94.24l.5 1.94a5.97 5.97 0 0 1 2.91 0l.5-1.94A8 8 0 0 0 8 0zM3.885 1.14l1.03 1.715a5.86 5.86 0 0 0-2.06 2.06L1.14 3.885A8.07 8.07 0 0 1 3.885 1.14zM.24 6.06l1.94.5a5.97 5.97 0 0 0 0 2.91l-1.94.5a7.96 7.96 0 0 1 0-3.88zm.9 6.055 1.715-1.03a5.86 5.86 0 0 0 2.06 2.06l-1.03 1.715a8.07 8.07 0 0 1-2.745-2.745zm4.92 3.645.5-1.94a5.97 5.97 0 0 0 2.91 0l.5 1.94a7.96 7.96 0 0 1-3.88 0zm6.055-.9-1.03-1.715a5.86 5.86 0 0 0 2.06-2.06l1.715 1.03a8.07 8.07 0 0 1-2.745 2.745zm3.645-4.92-1.94-.5a5.97 5.97 0 0 0 0-2.91l1.94-.5a7.96 7.96 0 0 1 0 3.88zm-.9-6.055-1.715 1.03a5.86 5.86 0 0 0-2.06-2.06l1.03-1.715a8.07 8.07 0 0 1 2.745 2.745z"/></svg>
